X: 1
T: reel de R\'emi
R: reel
M: C|
K: D
|: AG |\
"D"FD-DD "D7/F#"DFA=c | "G"BG-GF  "Em"G2ed | "A7"cA-AA Aceg |\
[1,3 "D"fdec "A7"dBAG :|[2,4 fdec "D"d2 :|
|: ef |\
"G"g2-gf g2b2 | "D"abaf "Bm"d2a2 | "Em"gece "A7"Acec |\
[1,3 "D"dcde fd :|[2,4 "D"d2dc d2 :|
